X: 17952
T: Howie's Thirst
R: jig
M: 6/8
K: Eminor
|:~E3 EDE|FGF FED|~E3 EFG|ABA FED|
~E3 EDE|FGF FGA|BAG AGF|1 ~E3 E2D:|2 ~E3 E2F||
|:~G3 GAB|cBA AGF|~G3 GAB|AGF E2F|
~G3 GAB|cBA AGF|GFE FED|1 ~E3 E2F:|2 ~E3 E2D||

